icons/svg/seamark/platform_fpso_additional.svg

<?xml version="1.0" encoding="UTF-8" standalone="no"?>
<svg
   xmlns:dc="http://purl.org/dc/elements/1.1/"
   xmlns:cc="http://creativecommons.org/ns#"
   xmlns:rdf="http://www.w3.org/1999/02/22-rdf-syntax-ns#"
   xmlns:svg="http://www.w3.org/2000/svg"
   xmlns="http://www.w3.org/2000/svg"
   xmlns:sodipodi="http://sodipodi.sourceforge.net/DTD/sodipodi-0.dtd"
   xmlns:inkscape="http://www.inkscape.org/namespaces/inkscape"
   width="1060"
   height="1060"
   id="svg2"
   version="1.1"
   inkscape:version="0.48.4 r9939"
   sodipodi:docname="platform_fpso_additional.svg">
  <defs
     id="defs13">
    <inkscape:path-effect
       effect="gears"
       id="path-effect3774"
       is_visible="true"
       teeth="6"
       phi="-1.2" />
    <inkscape:path-effect
       effect="bend_path"
       id="path-effect3772"
       is_visible="false"
       bendpath="m 95.790098,316.51174 c 144.429032,-206.42506 223.313032,-11.7428 339.548092,0"
       prop_scale="1.19"
       scale_y_rel="false"
       vertical="false"
       bendpath-nodetypes="cc" />
  </defs>
  <sodipodi:namedview
     pagecolor="#ffffff"
     bordercolor="#666666"
     borderopacity="1"
     objecttolerance="10"
     gridtolerance="10"
     guidetolerance="10"
     inkscape:pageopacity="0"
     inkscape:pageshadow="2"
     inkscape:window-width="1920"
     inkscape:window-height="1004"
     id="namedview11"
     showgrid="false"
     inkscape:zoom="0.35355339"
     inkscape:cx="1004.518"
     inkscape:cy="565.29744"
     inkscape:window-x="1680"
     inkscape:window-y="0"
     inkscape:window-maximized="1"
     inkscape:current-layer="svg2"
     inkscape:snap-object-midpoints="true"
     inkscape:snap-center="true" />
  <metadata
     id="metadata2975">image/svg+xmlen<rdf:RDF>
  <cc:Work
     rdf:about="">
    <dc:format>image/svg+xml</dc:format>
    <dc:type
       rdf:resource="http://purl.org/dc/dcmitype/StillImage" />
    <dc:title />
  </cc:Work>
</rdf:RDF>
</metadata>
  <path
     style="font-size:medium;font-style:normal;font-variant:normal;font-weight:normal;font-stretch:normal;text-indent:0;text-align:start;text-decoration:none;line-height:normal;letter-spacing:normal;word-spacing:normal;text-transform:none;direction:ltr;block-progression:tb;writing-mode:lr-tb;text-anchor:start;baseline-shift:baseline;opacity:0.42608696;color:#000000;fill:#acd8f3;fill-opacity:1;fill-rule:nonzero;stroke:#a35151;stroke-width:0;stroke-linecap:round;stroke-linejoin:miter;stroke-miterlimit:4;stroke-opacity:1;stroke-dashoffset:0;marker:none;visibility:visible;display:inline;overflow:visible;enable-background:accumulate;font-family:Sans;-inkscape-font-specification:Sans"
     d="m 236.88039,34.281991 c -8.45678,0.445746 -16.73691,3.757741 -23.16827,9.267127 -6.43138,5.509387 -10.97518,13.182949 -12.71386,21.471069 -5.01991,23.898461 -15.54466,41.361403 -27.97802,62.291923 -12.43337,20.93051 -28.29169,47.1174 -28.29169,82.05215 0,43.18637 30.045,76.85977 63.92289,92.02638 -5.80234,8.6678 -12.63233,19.06958 -19.88573,31.30277 -16.3926,27.64689 -36.07033,55.53518 -36.07033,95.35113 0,28.92617 12.5769,55.17287 32.51057,73.51991 32.76475,0.11543 41.62743,0.004 67.54539,0.004 25.75902,0 35.76919,-0.0461 67.18761,0.2809 20.10775,-18.36756 32.80561,-44.74521 32.80561,-73.80482 0,-39.77501 -19.66494,-68.92385 -36.13306,-96.41756 -6.87715,-11.48146 -13.22858,-20.84202 -18.88203,-29.16991 37.11921,-14.1815 63.04466,-51.06412 63.04466,-93.59466 0,-29.61027 -8.66348,-58.75225 -25.0924,-85.00051 C 319.25281,97.613202 296.19556,73.314704 265.23481,44.569451 257.66337,37.546165 247.19388,33.747494 236.88039,34.281561 z m 199.23368,41.402466 c -10.15086,-0.0063 -20.24128,4.171002 -27.41902,11.34875 -7.17775,7.177753 -11.35417,17.268183 -11.34875,27.419043 l 0,54.82689 c 0.012,12.01498 5.97997,23.88047 15.62002,31.05185 l 0,18.56838 -71.55104,282.81301 c 162.08455,-0.14955 173.91433,-0.24913 374.09992,-0.17746 l -15.01213,-51.30773 12.24373,20.47443 c 7.15557,9.78216 19.12011,15.87095 31.24002,15.87095 l 171.06751,0 c 48.65856,0 82.15577,-30.11862 104.82347,-61.85278 9.411,-13.17563 18.3554,-27.93687 25.5942,-42.65708 7.2388,-14.72021 14.1772,-26.57893 14.1772,-48.24014 0.01,-10.15086 -4.171,-20.24127 -11.3487,-27.41901 -7.1777,-7.17775 -17.2682,-11.35417 -27.4191,-11.34875 l -26.347,0 0,-10.09969 c 0,-10.15086 -4.171,-20.24128 -11.34869,-27.41901 -7.1777,-7.17776 -17.26814,-11.35417 -27.41897,-11.34875 l -48.86747,0 c -2.74147,0.0239 -5.48016,0.33999 -8.15506,0.94096 -2.67482,-0.60097 -5.4136,-0.917 -8.15497,-0.94096 l -48.86748,0 c -3.41048,0.0337 -6.81622,0.52017 -10.09967,1.44281 l 0,-11.5425 c 0,-10.15086 -4.17105,-20.24128 -11.34875,-27.41902 -7.17778,-7.17774 -17.26822,-11.35417 -27.41905,-11.34875 l -10.66423,0 c -9.10911,0 -6.17184,-17.42482 -13.09924,-23.33982 -6.9273,-5.915 -15.99487,-9.26702 -25.104,-9.28029 l -16.31004,0 c -9.20178,0 -18.36433,3.41338 -25.32667,9.42994 -6.96233,6.01656 -11.66612,14.58772 -13.00197,23.69203 -9.07173,1.36143 -17.60308,6.06748 -23.5936,13.01466 -5.99053,6.94718 -9.39058,16.07795 -9.40291,25.25125 l 2.5,39.42484 c 0.0239,2.74142 0.33999,5.48018 0.94097,8.15503 -0.45984,2.04188 -0.75386,4.12106 -0.87823,6.21037 l -17.16808,-70.97854 0,-18.6311 c 9.62332,-7.15891 15.58933,-18.99507 15.62002,-30.98913 l 0,-54.82689 c 0.006,-10.15086 -4.171,-20.24129 -11.34875,-27.419043 -7.17773,-7.177748 -17.26815,-11.35417 -27.41901,-11.34875 z"
     id="path4767"
     inkscape:connector-curvature="0"
     sodipodi:nodetypes="cscsscsscscsscsscccccccccccccssscscccscccccccsccsccscsccccccccsccc" />
  <path
     inkscape:connector-curvature="0"
     style="fill:none;stroke:#001836;stroke-width:37.53823471;stroke-linecap:round;stroke-linejoin:miter;stroke-miterlimit:4;stroke-opacity:1;stroke-dasharray:none"
     d="M 621.69695,383.22473 403.03667,560.8772"
     id="path9895"
     sodipodi:nodetypes="cc" />
  <path
     inkscape:connector-curvature="0"
     style="fill:none;stroke:#001836;stroke-width:60.22175217;stroke-linecap:round;stroke-linejoin:round;stroke-miterlimit:4;stroke-opacity:1;stroke-dasharray:none"
     sodipodi:nodetypes="cz"
     id="path9928"
     d="m 574.77859,221.26736 89.97236,363.38015" />
  <path
     inkscape:connector-curvature="0"
     d="M 481.02929,221.26736 388.93567,584.64751"
     id="path5516"
     sodipodi:nodetypes="cz"
     style="fill:none;stroke:#001836;stroke-width:60.22175217;stroke-linecap:round;stroke-linejoin:round;stroke-miterlimit:4;stroke-opacity:1;stroke-dasharray:none" />
  <path
     inkscape:connector-curvature="0"
     id="path5518"
     d="M 441.24787,388.9025 649.79985,560.8772"
     style="fill:none;stroke:#001836;stroke-width:37.53823471;stroke-linecap:round;stroke-linejoin:miter;stroke-miterlimit:4;stroke-opacity:1;stroke-dasharray:none"
     sodipodi:nodetypes="cc" />
  <path
     inkscape:connector-curvature="0"
     id="path5520"
     d="M 581.577,279.0364 444.72903,397.19991"
     style="fill:none;stroke:#001836;stroke-width:37.53823471;stroke-linecap:round;stroke-linejoin:miter;stroke-miterlimit:4;stroke-opacity:1;stroke-dasharray:none"
     sodipodi:nodetypes="cc" />
  <path
     inkscape:connector-curvature="0"
     style="fill:none;stroke:#001836;stroke-width:37.53823471;stroke-linecap:round;stroke-linejoin:miter;stroke-miterlimit:4;stroke-opacity:1;stroke-dasharray:none"
     d="M 471.21939,275.02162 607.68731,393.18513"
     id="path5522"
     sodipodi:nodetypes="cc" />
  <rect
     style="color:#000000;fill:#001836;fill-opacity:1;stroke:none;stroke-width:24;marker:none;visibility:visible;display:inline;overflow:visible;enable-background:accumulate"
     id="rect4100-5-6"
     width="151.24774"
     height="41.390003"
     x="451.2211"
     y="190.87033" />
  <rect
     style="color:#000000;fill:#001836;fill-opacity:1;stroke:none;stroke-width:24;marker:none;visibility:visible;display:inline;overflow:visible;enable-background:accumulate"
     id="rect4100-5-6-7"
     width="182.47543"
     height="54.874691"
     x="435.60724"
     y="114.9303" />
  <path
     inkscape:connector-curvature="0"
     d="m 252.21215,306.00903 c 0,0 -61.27444,84.25235 -61.27444,122.54888 0,33.70092 27.57351,61.27442 61.27444,61.27442 33.70095,0 61.27444,-27.5735 61.27444,-61.27442 0,-40.59432 -61.27444,-122.54888 -61.27444,-122.54888 z m -22.97792,124.08074 c 0,26.80756 11.48895,36.76465 11.48895,36.76465 0,0 -26.80755,-6.89337 -26.80755,-43.65804 0,-25.27569 30.63722,-78.89083 30.63722,-78.89083 0,0 -15.31862,46.72176 -15.31862,85.78422 z"
     id="path3"
     style="color:#000000;fill:#001836;fill-opacity:1;fill-rule:nonzero;stroke:none;stroke-width:24;marker:none;visibility:visible;display:inline;overflow:visible;enable-background:accumulate" />
  <path
     style="color:#000000;fill:#001836;fill-opacity:1;fill-rule:nonzero;stroke:none;stroke-width:24;marker:none;visibility:visible;display:inline;overflow:visible;enable-background:accumulate"
     inkscape:connector-curvature="0"
     d="m 238.36881,73.474075 c -13.02767,62.021935 -55.41186,90.231875 -55.41186,136.402005 0,30.30302 19.49151,49.68677 46.60108,59.08239 -7.99514,-6.20988 -18.7528,-19.4761 -18.7528,-31.9959 0,-23.6776 12.05041,-30.76469 18.32187,-56.48147 15.05147,13.07384 15.39003,30.7801 15.39003,30.7801 0,0 21.03053,-30.99558 15.39006,-69.2552 61.56018,53.86515 36.45902,111.16999 12.01193,127.92975 27.27117,-3.98602 49.54825,-29.12566 49.54825,-60.53674 0,-46.17015 -23.30822,-80.41302 -83.09856,-135.924935 z"
     id="path3-5" />
  <g
     id="g4592"
     transform="matrix(2.5795495,0,0,2.5795495,-836.94114,-1408.5714)">
    <polygon
       style="color:#000000;fill:#001836;fill-opacity:1;fill-rule:nonzero;stroke:none;stroke-width:3.8006494;marker:none;visibility:visible;display:inline;overflow:visible;enable-background:accumulate"
       id="polygon3"
       points="8,7 8,5 2,5 2,10 7,10 7,8 "
       transform="matrix(6.3147102,0,0,6.3147102,582.65399,606.18868)" />
    <path
       inkscape:connector-curvature="0"
       id="line5"
       d="m 607.90625,625.125 0,18.9375 6.3125,0 0,-18.9375 -6.3125,0 z"
       style="font-size:medium;font-style:normal;font-variant:normal;font-weight:normal;font-stretch:normal;text-indent:0;text-align:start;text-decoration:none;line-height:normal;letter-spacing:normal;word-spacing:normal;text-transform:none;direction:ltr;block-progression:tb;writing-mode:lr-tb;text-anchor:start;baseline-shift:baseline;color:#000000;fill:#001836;fill-opacity:1;fill-rule:nonzero;stroke:none;stroke-width:24;marker:none;visibility:visible;display:inline;overflow:visible;enable-background:accumulate;font-family:Sans;-inkscape-font-specification:Sans" />
    <path
       style="color:#000000;fill:#001836;fill-opacity:1;fill-rule:nonzero;stroke:none;stroke-width:24;marker:none;visibility:visible;display:inline;overflow:visible;enable-background:accumulate"
       id="path9"
       d="m 595.28341,675.65049 v 10.10353 c 0,5.68324 1.89441,10.73501 5.05177,15.15531 l 13.89236,18.94413 h 66.30447 c 10.1035,0 22.1015,-8.84059 28.4162,-17.68119 6.3147,-8.84059 12.6294,-20.83854 12.6294,-26.52178 h -126.2942 z m 94.7206,18.94413 v -6.31471 h 12.6295 v 6.31471 h -12.6295 z"
       inkscape:connector-curvature="0" />
    <rect
       style="color:#000000;fill:#001836;fill-opacity:1;fill-rule:nonzero;stroke:none;stroke-width:24;marker:none;visibility:visible;display:inline;overflow:visible;enable-background:accumulate"
       id="rect11"
       height="12.62942"
       width="18.944132"
       y="656.7063"
       x="652.11591" />
    <rect
       style="color:#000000;fill:#001836;fill-opacity:1;fill-rule:nonzero;stroke:none;stroke-width:24;marker:none;visibility:visible;display:inline;overflow:visible;enable-background:accumulate"
       id="rect13"
       height="12.62942"
       width="18.944132"
       y="656.7063"
       x="677.37476" />
  </g>
</svg>

<svg width="1060" height="1060" viewBox="0 0 1060 1060" fill="none" xmlns="http://www.w3.org/2000/svg">
<path opacity="0.426087" d="M236.88 34.2825C228.424 34.7282 220.143 38.0402 213.712 43.5496C207.281 49.059 202.737 56.7326 200.998 65.0207C195.978 88.9191 185.454 106.382 173.02 127.313C160.587 148.243 144.729 174.43 144.729 209.365C144.729 252.551 174.774 286.225 208.651 301.391C202.849 310.059 196.019 320.461 188.766 332.694C172.373 360.341 152.695 388.229 152.695 428.045C152.695 456.971 165.272 483.218 185.206 501.565C217.971 501.68 226.833 501.569 252.751 501.569C278.51 501.569 288.521 501.523 319.939 501.85C340.047 483.482 352.745 457.105 352.745 428.045C352.745 388.27 333.08 359.121 316.612 331.627C309.734 320.146 303.383 310.785 297.729 302.458C334.849 288.276 360.774 251.393 360.774 208.863C360.774 179.253 352.111 150.111 335.682 123.862C319.253 97.6137 296.196 73.3152 265.235 44.5699C257.663 37.5467 247.194 33.748 236.88 34.2821V34.2825ZM436.114 75.685C425.963 75.6787 415.873 79.856 408.695 87.0337C401.517 94.2115 397.341 104.302 397.346 114.453V169.28C397.358 181.295 403.326 193.16 412.966 200.331V218.9L341.415 501.713C503.5 501.563 515.33 501.464 715.515 501.535L700.503 450.228L712.747 470.702C719.902 480.484 731.867 486.573 743.987 486.573H915.054C963.713 486.573 997.21 456.454 1019.88 424.72C1029.29 411.545 1038.23 396.783 1045.47 382.063C1052.71 367.343 1059.65 355.484 1059.65 333.823C1059.66 323.672 1055.48 313.582 1048.3 306.404C1041.12 299.226 1031.03 295.05 1020.88 295.055H994.534V284.956C994.534 274.805 990.363 264.714 983.186 257.537C976.008 250.359 965.918 246.182 955.767 246.188H906.899C904.158 246.212 901.419 246.528 898.744 247.129C896.069 246.528 893.331 246.212 890.589 246.188H841.722C838.311 246.222 834.906 246.708 831.622 247.631V236.088C831.622 225.937 827.451 215.847 820.273 208.669C813.096 201.491 803.005 197.315 792.854 197.32H782.19C773.081 197.32 776.018 179.896 769.091 173.981C762.164 168.066 753.096 164.714 743.987 164.7H727.677C718.475 164.7 709.312 168.114 702.35 174.13C695.388 180.147 690.684 188.718 689.348 197.822C680.276 199.184 671.745 203.89 665.755 210.837C659.764 217.784 656.364 226.915 656.352 236.088L658.852 275.513C658.875 278.254 659.192 280.993 659.793 283.668C659.333 285.71 659.039 287.789 658.914 289.878L641.746 218.9V200.269C651.37 193.11 657.336 181.274 657.366 169.28V114.453C657.372 104.302 653.195 94.2115 646.018 87.0337C638.84 79.856 628.749 75.6795 618.599 75.685H436.114Z" fill="#ACD8F3"/>
<path d="M621.697 383.225L403.037 560.877" stroke="#001836" stroke-width="37.5382" stroke-linecap="round"/>
<path d="M574.779 221.268L664.751 584.648" stroke="#001836" stroke-width="60.2218" stroke-linecap="round" stroke-linejoin="round"/>
<path d="M481.029 221.268L388.936 584.648" stroke="#001836" stroke-width="60.2218" stroke-linecap="round" stroke-linejoin="round"/>
<path d="M441.248 388.902L649.8 560.877" stroke="#001836" stroke-width="37.5382" stroke-linecap="round"/>
<path d="M581.577 279.037L444.729 397.201" stroke="#001836" stroke-width="37.5382" stroke-linecap="round"/>
<path d="M471.219 275.021L607.687 393.185" stroke="#001836" stroke-width="37.5382" stroke-linecap="round"/>
<path d="M602.469 190.871H451.221V232.261H602.469V190.871Z" fill="#001836"/>
<path d="M618.083 114.93H435.607V169.804H618.083V114.93Z" fill="#001836"/>
<path d="M252.212 306.01C252.212 306.01 190.938 390.262 190.938 428.559C190.938 462.26 218.511 489.833 252.212 489.833C285.913 489.833 313.487 462.26 313.487 428.559C313.487 387.964 252.212 306.01 252.212 306.01V306.01ZM229.234 430.091C229.234 456.898 240.723 466.855 240.723 466.855C240.723 466.855 213.916 459.962 213.916 423.197C213.916 397.921 244.553 344.306 244.553 344.306C244.553 344.306 229.234 391.028 229.234 430.091V430.091Z" fill="#001836"/>
<path d="M238.369 73.4746C225.341 135.497 182.957 163.706 182.957 209.877C182.957 240.18 202.448 259.563 229.558 268.959C221.563 262.749 210.805 249.483 210.805 236.963C210.805 213.286 222.856 206.198 229.127 180.482C244.179 193.555 244.517 211.262 244.517 211.262C244.517 211.262 265.548 180.266 259.907 142.007C321.467 195.872 296.366 253.177 271.919 269.936C299.19 265.95 321.467 240.811 321.467 209.4C321.467 163.229 298.159 128.987 238.369 73.4746V73.4746Z" fill="#001836"/>
<path d="M796.356 269.145V236.566H698.622V318.012H780.067V285.434L796.356 269.145Z" fill="#001836"/>
<path d="M731.183 203.969V252.819H747.467V203.969H731.183Z" fill="#001836"/>
<path d="M698.622 334.301V360.363C698.622 375.023 703.509 388.055 711.653 399.457L747.489 448.324H918.525C944.587 448.324 975.537 425.52 991.826 402.715C1008.11 379.91 1024.4 348.961 1024.4 334.301H698.622V334.301ZM942.958 383.168V366.879H975.537V383.168H942.958Z" fill="#001836"/>
<path d="M894.091 285.434H845.224V318.012H894.091V285.434Z" fill="#001836"/>
<path d="M959.248 285.434H910.381V318.012H959.248V285.434Z" fill="#001836"/>
</svg>
